X:3
T:Genevieve's Waltz
R:waltz
C:Manus McGuire (Moving Cloud)
Z:Derek Bone 9th April 200 (irtrad-l 2001-4-28)
P:AABBAABB
M:3/4
L:1/8
Q:1/8=150
K:A
E \
|  c>dc BAG | A>Bc E2E | F>Ad cEc | c>BA B2E \
|  c>dc BAG | A>Bc E2E | FAd cEc | B>AG A2 :|
e \
| f>ff fga | e2d c>BA | d>ed cBA | FGA  B2e \
| f>ff fga | e2d c>BA | d>ed cBA | FAG A2 ||
e \
| f>ff fga | e2d c>BA | d>e{fg}a ecA | FGA B2E \
| c>dc BAG | A>Bc E2E | F>Ad cEc | B>AG A2 |]
